antibot/app/images/dist/bot-icon.svg

<svg width="27" height="29" viewBox="0 0 27 29" fill="none" xmlns="http://www.w3.org/2000/svg">
<path d="M4.21373 5.90555H12.4189V1.80298C12.4189 1.53097 12.5269 1.27009 12.7193 1.07775C12.9116 0.885402 13.1725 0.777344 13.4445 0.777344C13.7165 0.777344 13.9774 0.885402 14.1697 1.07775C14.3621 1.27009 14.4701 1.53097 14.4701 1.80298V5.90555H22.6753C23.7623 5.90893 24.8038 6.34225 25.5725 7.1109C26.3411 7.87955 26.7745 8.92109 26.7778 10.0081V24.3671C26.7745 25.4541 26.3411 26.4957 25.5725 27.2643C24.8038 28.0329 23.7623 28.4663 22.6753 28.4697H4.21373C3.1267 28.4663 2.08516 28.0329 1.31651 27.2643C0.547867 26.4957 0.114548 25.4541 0.111168 24.3671V10.0081C0.114548 8.92109 0.547867 7.87955 1.31651 7.1109C2.08516 6.34225 3.1267 5.90893 4.21373 5.90555ZM20.624 13.5979C20.624 13.2936 20.5338 12.9961 20.3647 12.7431C20.1957 12.4901 19.9554 12.2929 19.6743 12.1765C19.3932 12.0601 19.0838 12.0296 18.7854 12.089C18.487 12.1483 18.2128 12.2948 17.9977 12.51C17.7825 12.7252 17.636 12.9993 17.5766 13.2977C17.5173 13.5961 17.5477 13.9055 17.6642 14.1866C17.7806 14.4677 17.9778 14.708 18.2308 14.877C18.4838 15.0461 18.7812 15.1363 19.0855 15.1363C19.4936 15.1363 19.8849 14.9742 20.1734 14.6857C20.4619 14.3972 20.624 14.0059 20.624 13.5979ZM17.0342 23.3414H18.0599C18.6039 23.3414 19.1257 23.1253 19.5104 22.7406C19.895 22.3559 20.1112 21.8342 20.1112 21.2902C20.1112 20.7461 19.895 20.2244 19.5104 19.8397C19.1257 19.455 18.6039 19.2389 18.0599 19.2389H17.0342V23.3414ZM11.906 23.3414H14.983V19.2389H11.906V23.3414ZM8.82911 23.3414H9.85476V19.2389H8.82911C8.28508 19.2389 7.76333 19.455 7.37864 19.8397C6.99395 20.2244 6.77783 20.7461 6.77783 21.2902C6.77783 21.8342 6.99395 22.3559 7.37864 22.7406C7.76333 23.1253 8.28508 23.3414 8.82911 23.3414ZM7.80347 15.1363C8.10775 15.1363 8.4052 15.0461 8.6582 14.877C8.9112 14.708 9.10838 14.4677 9.22483 14.1866C9.34127 13.9055 9.37174 13.5961 9.31237 13.2977C9.25301 12.9993 9.10649 12.7252 8.89133 12.51C8.67617 12.2948 8.40204 12.1483 8.10361 12.089C7.80518 12.0296 7.49585 12.0601 7.21473 12.1765C6.93361 12.2929 6.69334 12.4901 6.52429 12.7431C6.35524 12.9961 6.26501 13.2936 6.26501 13.5979C6.26501 14.0059 6.4271 14.3972 6.71562 14.6857C7.00414 14.9742 7.39545 15.1363 7.80347 15.1363Z" fill="#DB5454"/>
</svg>

<svg width="27" height="29" fill="none" xmlns="http://www.w3.org/2000/svg"><path d="M4.214 5.906h8.205V1.803a1.025 1.025 0 1 1 2.051 0v4.103h8.205a4.115 4.115 0 0 1 4.103 4.102v14.36a4.115 4.115 0 0 1-4.103 4.102H4.214A4.116 4.116 0 0 1 .11 24.367V10.008a4.115 4.115 0 0 1 4.103-4.102Zm16.41 7.692a1.538 1.538 0 1 0-3.077 0 1.538 1.538 0 0 0 3.077 0Zm-3.59 9.743h1.026a2.051 2.051 0 0 0 0-4.102h-1.026v4.102Zm-5.128 0h3.077V19.24h-3.077v4.102Zm-3.077 0h1.026V19.24H8.829a2.051 2.051 0 1 0 0 4.102Zm-1.026-8.205a1.538 1.538 0 1 0 0-3.076 1.538 1.538 0 0 0 0 3.076Z" fill="#DB5454"/></svg>
